X:2275
T:Svingedans/Bugadans
T:(FMK Ske 29 bild 122)
T:efter en Gubbe från Sjöbotrakten
R:Svingedans
R:S:efter en Gubbe från Sjöbotrakten
O:Sjöbotrakten, Skåne
B:John Enningers samlingar
Z:Åke Persson 2012-03-17
M:3/4
L:1/8
Q:1/4=108
%%printtempo 0
%%MIDI ratio 2 1
K:D
|: Ad f2 f2 | edcd e2 | ef g2 gf | ea ae d2 :|
|: a2 fdfa | ageceg | feceae | ce d2 d2 :|
(:musicend:)
Mycket svårtolkad originalnot.

(:music:)
